atlases.vromfs.bin_u/gameuiskin/item_type_free_rp.svg

<svg id="Layer_1" data-name="Layer 1" xmlns="http://www.w3.org/2000/svg" xmlns:xlink="http://www.w3.org/1999/xlink" width="24" height="24" viewBox="0 0 24 24">
  <defs>
    <style>
      .cls-1 {
        opacity: 0.26;
      }

      .cls-1, .cls-12, .cls-13, .cls-14, .cls-15, .cls-16, .cls-2 {
        isolation: isolate;
      }

      .cls-2 {
        opacity: 0.62;
      }

      .cls-12, .cls-13, .cls-14, .cls-15, .cls-16, .cls-17, .cls-3, .cls-4, .cls-5 {
        fill-rule: evenodd;
      }

      .cls-3 {
        fill: url(#radial-gradient);
      }

      .cls-4 {
        fill: url(#radial-gradient-2);
      }

      .cls-5 {
        fill: #fff;
      }

      .cls-6 {
        fill: url(#radial-gradient-3);
      }

      .cls-7 {
        fill: url(#radial-gradient-4);
      }

      .cls-8 {
        fill: url(#radial-gradient-5);
      }

      .cls-9 {
        fill: url(#linear-gradient);
      }

      .cls-10 {
        fill: #4a2905;
      }

      .cls-11 {
        fill: url(#linear-gradient-2);
      }

      .cls-12, .cls-13, .cls-14, .cls-15 {
        opacity: 0.33;
      }

      .cls-12 {
        fill: url(#linear-gradient-3);
      }

      .cls-13 {
        fill: url(#linear-gradient-4);
      }

      .cls-14 {
        fill: url(#linear-gradient-5);
      }

      .cls-15 {
        fill: url(#linear-gradient-6);
      }

      .cls-16 {
        fill: #d17a29;
        opacity: 0.64;
      }

      .cls-17 {
        fill: url(#linear-gradient-7);
      }
    </style>
    <radialGradient id="radial-gradient" cx="37.55812" cy="24.02789" r="11.62689" gradientTransform="matrix(0.9734, 0, 0, -1, -24.87105, 26)" gradientUnits="userSpaceOnUse">
      <stop offset="0" stop-color="#8c6239"/>
      <stop offset="0.34401" stop-color="#896037"/>
      <stop offset="0.56046" stop-color="#815830"/>
      <stop offset="0.74166" stop-color="#724b24"/>
      <stop offset="0.9025" stop-color="#5e3913"/>
      <stop offset="1" stop-color="#4d2a05"/>
    </radialGradient>
    <radialGradient id="radial-gradient-2" cx="-8.2876" cy="15.95283" r="8.02673" gradientTransform="matrix(1, 0, 0, -1, 20.28756, 26)" gradientUnits="userSpaceOnUse">
      <stop offset="0" stop-color="#fff"/>
      <stop offset="0.06726" stop-color="#fffef6"/>
      <stop offset="0.16" stop-color="#fffbe2"/>
      <stop offset="0.21739" stop-color="#fff6c9"/>
      <stop offset="0.2871" stop-color="#fef2b1"/>
      <stop offset="0.33" stop-color="#fef0a8"/>
      <stop offset="0.5" stop-color="#edce50"/>
      <stop offset="0.65512" stop-color="#e3bc49"/>
      <stop offset="0.83" stop-color="#de981b"/>
      <stop offset="1" stop-color="#be8f07"/>
    </radialGradient>
    <radialGradient id="radial-gradient-3" cx="-13.16992" cy="21.45533" r="6.37739" gradientTransform="matrix(1, 0, 0, -1, 20.28756, 26)" gradientUnits="userSpaceOnUse">
      <stop offset="0" stop-color="#fff"/>
      <stop offset="0.21596" stop-color="#fff" stop-opacity="0.76266"/>
      <stop offset="0.6041" stop-color="#fff" stop-opacity="0.35634"/>
      <stop offset="0.87374" stop-color="#fff" stop-opacity="0.09981"/>
      <stop offset="1" stop-color="#fff" stop-opacity="0"/>
    </radialGradient>
    <radialGradient id="radial-gradient-4" cx="-19.22865" cy="21.45533" r="6.37739" gradientTransform="matrix(1, 0, 0, -1, 0, 26)" xlink:href="#radial-gradient-3"/>
    <radialGradient id="radial-gradient-5" cx="-12.02248" cy="16.00074" r="7.72641" gradientTransform="matrix(1, 0, 0, -1, 0, 26)" xlink:href="#radial-gradient-3"/>
    <linearGradient id="linear-gradient" x1="10.82682" y1="5.12407" x2="13.15858" y2="5.12407" gradientTransform="matrix(1, 0, 0, -1, 0, 26)" gradientUnits="userSpaceOnUse">
      <stop offset="0" stop-color="#603813"/>
      <stop offset="0.5" stop-color="#aa792f"/>
      <stop offset="1" stop-color="#603813"/>
    </linearGradient>
    <linearGradient id="linear-gradient-2" x1="12.00352" y1="4.42224" x2="12.00352" y2="10.73877" gradientTransform="matrix(1, 0, 0, -1, 0, 26)" gradientUnits="userSpaceOnUse">
      <stop offset="0" stop-color="#4d2a05"/>
      <stop offset="1" stop-color="#63695a"/>
    </linearGradient>
    <linearGradient id="linear-gradient-3" x1="12.0135" y1="5.12407" x2="12.0135" y2="6.27244" gradientTransform="matrix(1, 0, 0, -1, 0, 26)" gradientUnits="userSpaceOnUse">
      <stop offset="0" stop-color="#fff"/>
      <stop offset="0.10214" stop-color="#faf7f2"/>
      <stop offset="0.293" stop-color="#eee1ce"/>
      <stop offset="0.55187" stop-color="#d9bf95"/>
      <stop offset="0.8656" stop-color="#be9047"/>
      <stop offset="1" stop-color="#b17a23"/>
    </linearGradient>
    <linearGradient id="linear-gradient-4" x1="12.0135" y1="6.52776" x2="12.0135" y2="7.67612" xlink:href="#linear-gradient-3"/>
    <linearGradient id="linear-gradient-5" x1="12.0135" y1="7.93138" x2="12.0135" y2="9.07975" xlink:href="#linear-gradient-3"/>
    <linearGradient id="linear-gradient-6" x1="12.00356" y1="9.3981" x2="12.00356" y2="11.10891" xlink:href="#linear-gradient-3"/>
    <linearGradient id="linear-gradient-7" x1="11.99133" y1="11.9864" x2="12.00909" y2="9.21208" gradientTransform="matrix(1, 0, 0, -1, 0, 26)" gradientUnits="userSpaceOnUse">
      <stop offset="0" stop-color="#e09b34"/>
      <stop offset="1" stop-color="#4d2a05"/>
    </linearGradient>
  </defs>
  <g id="Layer_3" data-name="Layer 3">
    <path class="cls-1" d="M12.00384.72826A7.96828,7.96828,0,0,0,4.06571,8.7078a10.544,10.544,0,0,0,2.96594,6.742A8.46,8.46,0,0,1,8.37,17.41526v2.55a2.56849,2.56849,0,0,0,1.61348,2.37694,2.65929,2.65929,0,0,0,4.0395,0,2.56838,2.56838,0,0,0,1.61476-2.37694v-2.581a12.57241,12.57241,0,0,1,1.14584-1.66967c1.32927-1.76139,3.15074-4.17385,3.15074-7.00679A7.96419,7.96419,0,0,0,12.00384.72826Z"/>
    <path class="cls-2" d="M12.00384,1.38967A7.306,7.306,0,0,0,4.72712,8.7078,10.001,10.001,0,0,0,7.54845,15.037a7.60573,7.60573,0,0,1,1.483,2.28583v2.6424a1.91863,1.91863,0,0,0,1.36158,1.8221,1.98819,1.98819,0,0,0,3.22177,0A1.91862,1.91862,0,0,0,14.9763,19.9653V17.24536A10.4925,10.4925,0,0,1,16.2552,15.316c1.27373-1.6871,3.01768-3.99755,3.01768-6.60826A7.302,7.302,0,0,0,12.00384,1.38967Z"/>
    <g>
      <path class="cls-3" d="M12.0043,1.72036A6.95612,6.95612,0,0,1,18.942,8.69482l0,.01287c0,3.84687-3.96737,7.02321-4.3611,8.66048a3.98469,3.98469,0,0,1-2.5766,1.08254,4.15769,4.15769,0,0,1-2.62121-1.05588c-.4296-2.12048-4.32517-4.38382-4.32517-8.68719a6.958,6.958,0,0,1,6.92853-6.98723Z"/>
      <path class="cls-4" d="M12.00434,2.63011c4.20225,0,6.30292,3.13134,6.30292,6.558,0,3.39078-3.48628,6.11935-3.84427,7.56887a4.09809,4.09809,0,0,1-2.45865,1.02876,4.07042,4.07042,0,0,1-2.44113-1.02009C9.179,14.896,5.69265,12.98121,5.69265,9.1881,5.69267,5.76145,7.79341,2.63011,12.00434,2.63011Z"/>
      <polygon class="cls-5" points="8.28 10.843 10.309 7.46 11.661 9.49 13.015 7.46 15.72 10.843 13.32 4.753 11.661 7.126 9.984 4.807 8.28 10.843"/>
      <path class="cls-6" d="M7.00564,13.28645a8.02151,8.02151,0,0,1-.26443-3.46456A7.18907,7.18907,0,0,1,9.13649,6.4354c1.44707-1.23049,2.58107-1.92715,2.72982-3.70324A6.48116,6.48116,0,0,0,7.25153,4.81681C5.67028,6.87133,5.30651,9.80337,7.00564,13.28645Z"/>
      <path class="cls-7" d="M7.49577,13.28645a8.0212,8.0212,0,0,1-.26443-3.46456A7.18914,7.18914,0,0,1,9.62662,6.4354c1.44707-1.23049,2.581-1.92715,2.7298-3.70324A6.48116,6.48116,0,0,0,7.74163,4.81681C6.16041,6.87133,5.79663,9.80337,7.49577,13.28645Z"/>
      <path class="cls-8" d="M9.74191,17.0264a3.44464,3.44464,0,0,0,2.14985.76317c1.51083.11045,2.70611-1.57428,2.70611-1.57428s1.89583-2.66211,2.15794-3.10886a8.32015,8.32015,0,0,0,1.40848-4.02318,5.53252,5.53252,0,0,0-1.002-3.39226,8.0359,8.0359,0,0,1-.123,4.26425,10.73166,10.73166,0,0,1-3.816,5.74075A7.57011,7.57011,0,0,1,9.74191,17.0264Z"/>
      <g>
        <ellipse class="cls-9" cx="12.00356" cy="20.87593" rx="1.58522" ry="1.40367"/>
        <path class="cls-10" d="M10.97416,21.57776H13.033A1.61266,1.61266,0,0,0,14.6456,19.9651V15.92151l-.66029-.66028H10.0218l-.66029.66028v4.04356a1.61265,1.61265,0,0,0,1.61261,1.61269Z"/>
        <path class="cls-11" d="M9.88992,15.26123h4.22726v4.49124a1.82528,1.82528,0,0,1-1.82528,1.82529h-.57675a1.82529,1.82529,0,0,1-1.82529-1.82529h0V15.26123Z"/>
        <path class="cls-12" d="M12.01351,20.24977a3.928,3.928,0,0,1-2.10369-.52221c.09093.64214.99235,1.14837,2.10369,1.14837s2.01276-.50623,2.10367-1.14837A3.92791,3.92791,0,0,1,12.01351,20.24977Z"/>
        <path class="cls-13" d="M12.01351,18.84609a3.9278,3.9278,0,0,1-2.10369-.52221c.09093.64214.99235,1.14836,2.10369,1.14836s2.01276-.50622,2.10367-1.14836A3.92773,3.92773,0,0,1,12.01351,18.84609Z"/>
        <path class="cls-14" d="M12.01351,17.44246a3.9278,3.9278,0,0,1-2.10369-.52221c.09093.64214.99235,1.14837,2.10369,1.14837s2.01276-.50623,2.10367-1.14837A3.92773,3.92773,0,0,1,12.01351,17.44246Z"/>
        <path class="cls-15" d="M9.643,15.63493a2.6854,2.6854,0,0,0,2.37541.967,2.79623,2.79623,0,0,0,2.34581-.90655l-.41374-.23781a3.54277,3.54277,0,0,1-1.93207.50134,3.46481,3.46481,0,0,1-1.99416-.54313Z"/>
      </g>
      <path class="cls-16" d="M14.89147,15.05c0,1.039-1.29458,1.8813-2.89151,1.8813s-2.8915-.84229-2.8915-1.8813S10.403,13.68972,12,13.68972,14.89147,14.01107,14.89147,15.05Z"/>
      <path class="cls-17" d="M14.13859,15.36252c0,.76847-.9575,1.39144-2.13863,1.39144s-2.13862-.623-2.13862-1.39144S10.81883,14.3564,12,14.3564,14.13859,14.594,14.13859,15.36252Z"/>
    </g>
  </g>
</svg>

<?xml version="1.0" encoding="UTF-8"?>
<svg id="Layer_2" data-name="Layer 2" xmlns="http://www.w3.org/2000/svg" width="24" height="24" xmlns:xlink="http://www.w3.org/1999/xlink" viewBox="0 0 24 24">
  <defs>
    <style>
      .cls-1 {
        fill: url(#linear-gradient-8);
      }

      .cls-1, .cls-2, .cls-3, .cls-4, .cls-5, .cls-6, .cls-7, .cls-8, .cls-9, .cls-10, .cls-11, .cls-12, .cls-13, .cls-14, .cls-15, .cls-16, .cls-17, .cls-18 {
        stroke-width: 0px;
      }

      .cls-1, .cls-3, .cls-4, .cls-5, .cls-6, .cls-7, .cls-9, .cls-16, .cls-17 {
        fill-rule: evenodd;
      }

      .cls-2 {
        fill: url(#linear-gradient);
      }

      .cls-3 {
        fill: url(#linear-gradient-5);
      }

      .cls-3, .cls-4, .cls-5, .cls-12, .cls-14, .cls-16, .cls-17 {
        isolation: isolate;
      }

      .cls-3, .cls-4, .cls-5, .cls-17 {
        opacity: .33;
      }

      .cls-4 {
        fill: url(#linear-gradient-4);
      }

      .cls-5 {
        fill: url(#linear-gradient-6);
      }

      .cls-6 {
        fill: url(#radial-gradient-2);
      }

      .cls-7 {
        fill: url(#radial-gradient);
      }

      .cls-8 {
        fill: url(#linear-gradient-2);
      }

      .cls-9 {
        fill: #fff;
      }

      .cls-10 {
        fill: url(#linear-gradient-3);
      }

      .cls-11 {
        fill: url(#radial-gradient-5);
      }

      .cls-12 {
        opacity: .26;
      }

      .cls-13 {
        fill: #4a2905;
      }

      .cls-14 {
        opacity: .62;
      }

      .cls-15 {
        fill: url(#radial-gradient-3);
      }

      .cls-16 {
        fill: #d17a29;
        opacity: .64;
      }

      .cls-17 {
        fill: url(#linear-gradient-7);
      }

      .cls-18 {
        fill: url(#radial-gradient-4);
      }
    </style>
    <radialGradient id="radial-gradient" cx="64.64" cy="1055.97" fx="64.64" fy="1055.97" r="11.63" gradientTransform="translate(-51.23 -1054) scale(.97 1)" gradientUnits="userSpaceOnUse">
      <stop offset="0" stop-color="#8c6239"/>
      <stop offset=".34" stop-color="#896037"/>
      <stop offset=".56" stop-color="#815830"/>
      <stop offset=".74" stop-color="#724b24"/>
      <stop offset=".9" stop-color="#5e3913"/>
      <stop offset="1" stop-color="#4d2a05"/>
    </radialGradient>
    <radialGradient id="radial-gradient-2" cx="-8.29" cy="1064.05" fx="-8.29" fy="1064.05" r="8.03" gradientTransform="translate(20.29 -1054)" gradientUnits="userSpaceOnUse">
      <stop offset="0" stop-color="#fff"/>
      <stop offset=".07" stop-color="#fffef6"/>
      <stop offset=".16" stop-color="#fffbe2"/>
      <stop offset=".22" stop-color="#fff6c9"/>
      <stop offset=".29" stop-color="#fef2b1"/>
      <stop offset=".33" stop-color="#fef0a8"/>
      <stop offset=".5" stop-color="#edce50"/>
      <stop offset=".66" stop-color="#e3bc49"/>
      <stop offset=".83" stop-color="#de981b"/>
      <stop offset="1" stop-color="#be8f07"/>
    </radialGradient>
    <radialGradient id="radial-gradient-3" cx="-13.17" cy="1058.54" fx="-13.17" fy="1058.54" r="6.38" gradientTransform="translate(20.29 -1054)" gradientUnits="userSpaceOnUse">
      <stop offset="0" stop-color="#fff"/>
      <stop offset=".22" stop-color="#fff" stop-opacity=".76"/>
      <stop offset=".6" stop-color="#fff" stop-opacity=".36"/>
      <stop offset=".87" stop-color="#fff" stop-opacity=".1"/>
      <stop offset="1" stop-color="#fff" stop-opacity="0"/>
    </radialGradient>
    <radialGradient id="radial-gradient-4" cx="-19.23" fx="-19.23" r="6.38" gradientTransform="translate(0 -1054)" xlink:href="#radial-gradient-3"/>
    <radialGradient id="radial-gradient-5" cx="-12.02" cy="1064" fx="-12.02" fy="1064" r="7.73" gradientTransform="translate(0 -1054)" xlink:href="#radial-gradient-3"/>
    <linearGradient id="linear-gradient" x1="10.83" y1="1074.88" x2="13.16" y2="1074.88" gradientTransform="translate(0 -1054)" gradientUnits="userSpaceOnUse">
      <stop offset="0" stop-color="#603813"/>
      <stop offset=".5" stop-color="#aa792f"/>
      <stop offset="1" stop-color="#603813"/>
    </linearGradient>
    <linearGradient id="linear-gradient-2" x1="12" y1="1075.58" x2="12" y2="1069.26" gradientTransform="translate(0 -1054)" gradientUnits="userSpaceOnUse">
      <stop offset="0" stop-color="#4d2a05"/>
      <stop offset="1" stop-color="#63695a"/>
    </linearGradient>
    <linearGradient id="linear-gradient-3" x1="15.52" y1="18.37" x2="9.42" y2="18.15" gradientUnits="userSpaceOnUse">
      <stop offset="0" stop-color="#545454"/>
      <stop offset=".1" stop-color="#a87c28"/>
      <stop offset=".18" stop-color="#e9c74d"/>
      <stop offset=".25" stop-color="#e2b43e"/>
      <stop offset=".37" stop-color="#b67b27"/>
      <stop offset=".53" stop-color="#d3a136"/>
      <stop offset=".72" stop-color="#f6f6f6"/>
      <stop offset=".84" stop-color="#f6f5ed"/>
      <stop offset="1" stop-color="#dfa227"/>
    </linearGradient>
    <linearGradient id="linear-gradient-4" x1="12.01" y1="1074.88" x2="12.01" y2="1073.73" gradientTransform="translate(0 -1054)" gradientUnits="userSpaceOnUse">
      <stop offset="0" stop-color="#fff"/>
      <stop offset=".1" stop-color="#faf7f2"/>
      <stop offset=".29" stop-color="#eee1ce"/>
      <stop offset=".55" stop-color="#d9bf95"/>
      <stop offset=".87" stop-color="#be9047"/>
      <stop offset="1" stop-color="#b17a23"/>
    </linearGradient>
    <linearGradient id="linear-gradient-5" y1="1073.47" y2="1072.32" xlink:href="#linear-gradient-4"/>
    <linearGradient id="linear-gradient-6" y1="1072.07" y2="1070.92" xlink:href="#linear-gradient-4"/>
    <linearGradient id="linear-gradient-7" x1="12" y1="1070.6" x2="12" y2="1068.89" xlink:href="#linear-gradient-4"/>
    <linearGradient id="linear-gradient-8" x1="11.99" y1="1068.01" x2="12.01" y2="1070.79" gradientTransform="translate(0 -1054)" gradientUnits="userSpaceOnUse">
      <stop offset="0" stop-color="#e09b34"/>
      <stop offset="1" stop-color="#4d2a05"/>
    </linearGradient>
  </defs>
  <g id="Layer_3-2" data-name="Layer 3">
    <path class="cls-12" d="m12,.73c-4.39.02-7.94,3.59-7.94,7.98.15,2.53,1.2,4.92,2.97,6.74.54.59.99,1.25,1.34,1.97v2.55c0,1.05.64,1.99,1.61,2.38.96,1.12,2.63,1.25,3.75.29.1-.09.2-.19.29-.29.97-.39,1.61-1.33,1.61-2.38v-2.58c.34-.59.72-1.14,1.15-1.67,1.33-1.76,3.15-4.17,3.15-7.01,0-4.39-3.54-7.96-7.93-7.98Z"/>
    <path class="cls-14" d="m12,1.39c-4.03.02-7.28,3.29-7.28,7.32.16,2.38,1.16,4.62,2.82,6.33.63.67,1.13,1.44,1.48,2.29v2.64c0,.84.56,1.58,1.36,1.82.64.89,1.89,1.09,2.78.45.17-.12.32-.27.45-.45.8-.24,1.36-.98,1.36-1.82v-2.72c.35-.69.78-1.34,1.28-1.93,1.27-1.69,3.02-4,3.02-6.61,0-4.03-3.24-7.3-7.27-7.32Z"/>
    <g>
      <path class="cls-7" d="m12,1.72c3.84.01,6.95,3.13,6.94,6.97h0c0,3.86-3.97,7.04-4.36,8.67-.7.66-1.62,1.04-2.58,1.08-.97-.04-1.9-.41-2.62-1.06-.43-2.12-4.33-4.38-4.33-8.69-.02-3.84,3.09-6.97,6.93-6.99h.02Z"/>
      <path class="cls-6" d="m12,2.63c4.2,0,6.3,3.13,6.3,6.56s-3.49,6.12-3.84,7.57c-.68.61-1.55.97-2.46,1.03-.9-.06-1.76-.42-2.44-1.02-.38-1.87-3.87-3.78-3.87-7.58,0-3.43,2.1-6.56,6.31-6.56Z"/>
      <polygon class="cls-9" points="8.28 10.84 10.31 7.46 11.66 9.49 13.01 7.46 15.72 10.84 13.32 4.75 11.66 7.13 9.98 4.81 8.28 10.84"/>
      <path class="cls-15" d="m7.01,13.29c-.34-1.12-.43-2.3-.26-3.46.45-1.34,1.28-2.52,2.4-3.39,1.45-1.23,2.58-1.93,2.73-3.7-1.76.04-3.42.79-4.61,2.08-1.58,2.05-1.95,4.99-.25,8.47Z"/>
      <path class="cls-18" d="m7.5,13.29c-.34-1.12-.43-2.3-.26-3.46.45-1.34,1.28-2.52,2.4-3.39,1.45-1.23,2.58-1.93,2.73-3.7-1.76.04-3.42.79-4.61,2.08-1.58,2.05-1.95,4.99-.25,8.47Z"/>
      <path class="cls-11" d="m9.74,17.03c.61.49,1.37.76,2.15.76,1.51.11,2.71-1.57,2.71-1.57,0,0,1.9-2.66,2.16-3.11.81-1.2,1.3-2.58,1.41-4.02.05-1.21-.31-2.4-1-3.39.34,1.41.3,2.88-.12,4.26-.61,2.28-1.95,4.3-3.82,5.74-1.03.73-2.23,1.18-3.48,1.33Z"/>
      <g>
        <ellipse class="cls-2" cx="12" cy="20.88" rx="1.59" ry="1.4"/>
        <path class="cls-13" d="m10.97,21.58h2.06c.89,0,1.61-.72,1.61-1.61v-4.04l-.66-.66h-3.96l-.66.66v4.04c0,.89.72,1.61,1.61,1.61h0Z"/>
        <path class="cls-8" d="m9.89,15.26h4.23v4.49c0,1.01-.82,1.83-1.83,1.83h-.58c-1.01,0-1.83-.82-1.83-1.83h0v-4.49h0Z"/>
        <path class="cls-10" d="m11.06,21.25h1.87c.81,0,1.46-.68,1.46-1.53h0v-3.83l-.6-.62h-3.6l-.6.62v3.83c0,.84.66,1.53,1.46,1.53h0Z"/>
        <path class="cls-4" d="m12.01,20.25c-.74.03-1.47-.15-2.1-.52.09.64.99,1.15,2.1,1.15s2.01-.51,2.1-1.15c-.64.37-1.37.55-2.1.52Z"/>
        <path class="cls-3" d="m12.01,18.85c-.74.03-1.47-.15-2.1-.52.09.64.99,1.15,2.1,1.15s2.01-.51,2.1-1.15c-.64.37-1.37.55-2.1.52Z"/>
        <path class="cls-5" d="m12.01,17.44c-.74.03-1.47-.15-2.1-.52.09.64.99,1.15,2.1,1.15s2.01-.51,2.1-1.15c-.64.37-1.37.55-2.1.52Z"/>
        <path class="cls-17" d="m9.64,15.63c.58.7,1.47,1.07,2.38.97.88.09,1.75-.25,2.35-.91l-.41-.24c-.58.35-1.25.52-1.93.5-.7.03-1.4-.16-1.99-.54l-.38.22Z"/>
      </g>
      <path class="cls-16" d="m14.89,15.05c0,1.04-1.29,1.88-2.89,1.88s-2.89-.84-2.89-1.88,1.29-1.36,2.89-1.36,2.89.32,2.89,1.36Z"/>
      <path class="cls-1" d="m14.14,15.36c0,.77-.96,1.39-2.14,1.39s-2.14-.62-2.14-1.39.96-1.01,2.14-1.01,2.14.24,2.14,1.01Z"/>
    </g>
  </g>
</svg>
